;FLAVOR:Marlin
;TIME:14754
;Filament used: 8.47491m
;Layer height: 0.13125
;MINX:49.155
;MINY:33.999
;MINZ:0.306
;MAXX:113.235
;MAXY:71.6
;MAXZ:42.447
;Generated with Cura_SteamEngine 4.13.1
M140 S60
M105
M190 S60
M104 S205
M105
M109 S205
M82 ;absolute extrusion mode
G21;(metric values)
G90;(absolute positioning)
M82;(set extruder to absolute mode)
M107;(start with the fan off)
G28;(Home the printer)
G92 E0;(Reset the extruder to 0)
G0 Z5 E5 F500;(Move up and prime the nozzle)
G0 X-1 Z0;(Move outside the printable area)
G1 Y60 E8 F500;(Draw a priming/wiping line to the rear)
G1 X-1;(Move a little closer to the print area)
G1 Y10 E16 F500;(draw more priming/wiping)
G1 E15 F250;(Small retract)
G92 E0;(Zero the extruder)
G92 E0
G92 E0
G1 F2400 E-4.5
;LAYER_COUNT:317
;LAYER:-6
M107
G0 F7200 X53.929 Y36.345 Z0.306
;TYPE:SUPPORT-INTERFACE
G1 F2400 E0
G1 F1125 X54.423 Y35.735 E0.07989
G1 X54.915 Y35.275 E0.14844
G1 X55.361 Y34.952 E0.20448
G1 X55.886 Y34.664 E0.26543
G1 X56.412 Y34.456 E0.323
G1 X56.965 Y34.316 E0.38105
G1 X57.753 Y34.232 E0.46171
G1 X57.945 Y34.225 E0.48126
G1 X104.56 Y34.225 E5.22555
G1 X105.063 Y34.253 E5.27682
G1 X105.645 Y34.345 E5.33679
G1 X106.194 Y34.505 E5.39499
G1 X106.731 Y34.738 E5.45457
G1 X107.209 Y35.021 E5.51111
G1 X107.829 Y35.523 E5.5923
G1 X108.289 Y36.015 E5.66085
G1 X108.612 Y36.461 E5.71689
G1 X108.902 Y36.988 E5.77811
G1 X109.11 Y37.519 E5.83616
G1 X109.247 Y38.055 E5.89246
G1 X109.332 Y38.846 E5.97343
G1 X109.339 Y39.031 E5.99227
G1 X109.339 Y42.29 E6.32396
G1 X109.381 Y42.958 E6.39208
G1 X109.51 Y43.629 E6.46162
G1 X109.723 Y44.278 E6.53114
G1 X110.015 Y44.895 E6.60061
G1 X110.383 Y45.47 E6.67009
G1 X110.818 Y45.99 E6.73909
G1 X111.174 Y46.343 E6.79012
G1 X111.615 Y46.866 E6.85975
G1 X111.92 Y47.338 E6.91694
G1 X112.183 Y47.891 E6.97926
G1 X112.365 Y48.454 E7.03948
G1 X112.563 Y49.369 E7.13476
G1 X112.723 Y49.844 E7.18578
G1 X112.89 Y50.413 E7.24613
G1 X112.95 Y50.769 E7.28287
G1 X113 Y51.323 E7.33949
G1 X113.01 Y51.545 E7.3621
G1 X113.01 Y54.107 E7.62285
G1 X112.982 Y54.61 E7.67413
G1 X112.89 Y55.192 E7.73409
G1 X112.814 Y55.483 E7.7647
G1 X112.55 Y56.289 E7.85102
G1 X112.394 Y57.026 E7.9277
G1 X112.234 Y57.575 E7.98589
G1 X112.001 Y58.112 E8.04547
G1 X111.706 Y58.606 E8.10403
G1 X111.241 Y59.184 E8.17953
G1 X111.02 Y59.41 E8.2117
G1 X110.563 Y59.9 E8.2799
G1 X110.165 Y60.454 E8.34932
G1 X109.838 Y61.054 E8.41887
G1 X109.591 Y61.691 E8.4884
G1 X109.425 Y62.358 E8.55836
G1 X109.339 Y63.307 E8.65534
G1 X109.339 Y66.596 E8.99008
G1 X109.311 Y67.099 E9.04135
G1 X109.219 Y67.681 E9.10132
G1 X109.059 Y68.23 E9.15952
G1 X108.826 Y68.767 E9.2191
G1 X108.543 Y69.245 E9.27563
G1 X108.041 Y69.865 E9.35683
G1 X107.551 Y70.323 E9.42509
G1 X107.103 Y70.648 E9.48142
G1 X106.578 Y70.936 E9.54236
G1 X106.052 Y71.144 E9.59993
G1 X105.499 Y71.284 E9.65799
G1 X104.711 Y71.368 E9.73864
G1 X104.519 Y71.375 E9.7582
G1 X57.904 Y71.375 E14.50249
G1 X57.401 Y71.347 E14.55376
G1 X56.819 Y71.255 E14.61373
G1 X56.268 Y71.094 E14.67215
G1 X55.732 Y70.861 E14.73163
G1 X55.255 Y70.579 E14.78803
G1 X54.635 Y70.077 E14.86922
G1 X54.175 Y69.585 E14.93777
G1 X53.849 Y69.134 E14.99441
G1 X53.564 Y68.614 E15.05476
G1 X53.356 Y68.088 E15.11233
G1 X53.216 Y67.535 E15.17039
G1 X53.131 Y66.737 E15.25206
G1 X53.125 Y66.569 E15.26917
G1 X53.125 Y63.378 E15.59394
G1 X53.083 Y62.71 E15.66206
G1 X52.954 Y62.039 E15.7316
G1 X52.741 Y61.39 E15.80112
G1 X52.449 Y60.773 E15.87059
G1 X52.081 Y60.198 E15.94008
G1 X51.646 Y59.678 E16.00907
G1 X51.201 Y59.241 E16.07255
G1 X50.775 Y58.734 E16.13995
G1 X50.467 Y58.256 E16.19782
G1 X50.209 Y57.715 E16.25882
G1 X50.025 Y57.147 E16.31959
G1 X49.827 Y56.231 E16.41497
G1 X49.667 Y55.756 E16.46598
G1 X49.5 Y55.187 E16.52634
G1 X49.44 Y54.831 E16.56308
G1 X49.39 Y54.277 E16.61969
G1 X49.38 Y54.055 E16.64231
G1 X49.38 Y51.493 E16.90306
G1 X49.408 Y50.99 E16.95433
G1 X49.5 Y50.408 E17.0143
G1 X49.576 Y50.117 E17.04491
G1 X49.84 Y49.311 E17.13123
G1 X49.995 Y48.578 E17.20748
G1 X50.156 Y48.025 E17.2661
G1 X50.389 Y47.488 E17.32568
G1 X50.677 Y47.004 E17.383
G1 X51.153 Y46.412 E17.46031
G1 X51.274 Y46.28 E17.47854
G1 X51.709 Y45.868 E17.53951
G1 X51.802 Y45.749 E17.55489
G1 X52.216 Y45.206 E17.62438
G1 X52.559 Y44.616 E17.69384
G1 X52.824 Y43.986 E17.7634
G1 X53.008 Y43.328 E17.83294
G1 X53.107 Y42.657 E17.90197
G1 X53.125 Y42.214 E17.94709
G1 X53.125 Y39.004 E18.27379
G1 X53.153 Y38.501 E18.32507
G1 X53.245 Y37.919 E18.38503
G1 X53.405 Y37.37 E18.44323
G1 X53.638 Y36.833 E18.50281
G1 X53.796 Y36.569 E18.53412
G0 F1012.5 X53.929 Y36.345
G0 F7200 X54.4 Y35.763
G1 F1125 X54.4 Y69.825 E22.00082
G0 F7200 X56 Y70.977
G1 F1125 X56 Y34.618 E25.70129
G0 F7200 X57.6 Y34.248
G1 F1125 X57.6 Y71.358 E29.4782
G0 F7200 X59.2 Y71.375
G1 F1125 X59.2 Y34.225 E33.25918
G0 F7200 X60.8 Y34.225
G1 F1125 X60.8 Y71.375 E37.04016
G0 F7200 X62.4 Y71.375
G1 F1125 X62.4 Y34.225 E40.82114
G0 F7200 X64 Y34.225
G1 F1125 X64 Y71.375 E44.60212
G0 F7200 X65.6 Y71.375
G1 F1125 X65.6 Y34.225 E48.38309
G0 F7200 X67.2 Y34.225
G1 F1125 X67.2 Y71.375 E52.16407
G0 F7200 X68.8 Y71.375
G1 F1125 X68.8 Y34.225 E55.94505
G0 F7200 X70.4 Y34.225
G1 F1125 X70.4 Y71.375 E59.72603
G0 F7200 X72 Y71.375
G1 F1125 X72 Y34.225 E63.50701
G0 F7200 X73.6 Y34.225
G1 F1125 X73.6 Y71.375 E67.28799
G0 F7200 X75.2 Y71.375
G1 F1125 X75.2 Y34.225 E71.06897
G0 F7200 X76.8 Y34.225
G1 F1125 X76.8 Y71.375 E74.84995
G0 F7200 X78.4 Y71.375
G1 F1125 X78.4 Y34.225 E78.63093
G0 F7200 X80 Y34.225
G1 F1125 X80 Y71.375 E82.4119
G0 F7200 X81.6 Y71.375
G1 F1125 X81.6 Y34.225 E86.19288
G0 F7200 X83.2 Y34.225
G1 F1125 X83.2 Y71.375 E89.97386
G0 F7200 X84.8 Y71.375
G1 F1125 X84.8 Y34.225 E93.75484
G0 F7200 X86.4 Y34.225
G1 F1125 X86.4 Y71.375 E97.53582
G0 F7200 X88 Y71.375
G1 F1125 X88 Y34.225 E101.3168
G0 F7200 X89.6 Y34.225
G1 F1125 X89.6 Y71.375 E105.09778
G0 F7200 X91.2 Y71.375
G1 F1125 X91.2 Y34.225 E108.87876
G0 F7200 X92.8 Y34.225
G1 F1125 X92.8 Y71.375 E112.65974
G0 F7200 X94.4 Y71.375
G1 F1125 X94.4 Y34.225 E116.44071
G0 F7200 X96 Y34.225
G1 F1125 X96 Y71.375 E120.22169
G0 F7200 X97.6 Y71.375
G1 F1125 X97.6 Y34.225 E124.00267
G0 F7200 X99.2 Y34.225
G1 F1125 X99.2 Y71.375 E127.78365
G0 F7200 X100.8 Y71.375
G1 F1125 X100.8 Y34.225 E131.56463
G0 F7200 X102.4 Y34.225
G1 F1125 X102.4 Y71.375 E135.34561
G0 F7200 X104 Y71.375
G1 F1125 X104 Y34.225 E139.12659
G0 F7200 X105.6 Y34.338
G1 F1125 X105.6 Y71.259 E142.88426
G0 F7200 X107.2 Y70.578
G1 F1125 X107.2 Y35.016 E146.50362
G0 F7200 X108.8 Y36.803
G1 F1125 X108.8 Y68.811 E149.76127
G0 F7200 X110.4 Y60.127
G1 F1125 X110.4 Y45.491 E151.25086
G0 F7200 X112 Y47.507
G1 F1125 X112 Y58.114 E152.3304
G0 F7200 X52.8 Y61.569
G1 F1125 X52.8 Y44.043 E154.11412
G0 F7200 X51.2 Y46.36
M104 S200
G1 F1125 X51.2 Y59.239 E155.4249
G0 F7200 X49.6 Y55.527
G1 F1125 X49.6 Y50.043 E155.98304
G0 F90 X49.6 Y50.043 Z0.525
G0 F7200 X56.136 Y34.501
;TIME_ELAPSED:112.785063
;LAYER:-5
;TYPE:SUPPORT
G1 F1125 X55.851 Y34.624 E156.00282
G1 X55.603 Y34.749 E156.02052
G1 X55.349 Y34.899 E156.03932
G1 X55.299 Y34.934 E156.04321
G1 X91.788 Y71.424 E159.33218
G1 X90.516 Y71.424 E159.41325
G1 X54.587 Y35.496 E162.65164
G1 X54.488 Y35.587 E162.66021
G1 X54.384 Y35.702 E162.6701
G1 X54.082 Y36.053 E162.69961
G1 X53.992 Y36.173 E162.70917
G1 X89.243 Y71.424 E165.8865
G1 X87.97 Y71.424 E165.96764
G1 X53.517 Y36.971 E169.07304
G1 X53.463 Y37.084 E169.08102
G1 X53.365 Y37.33 E169.0979
G1 X53.272 Y37.615 E169.11701
G1 X53.194 Y37.912 E169.13658
G1 X53.193 Y37.92 E169.13709
G1 X86.697 Y71.424 E172.15696
G1 X85.424 Y71.424 E172.23809
G1 X53.074 Y39.073 E175.15399
G1 X53.074 Y40.346 E175.23512
G1 X84.152 Y71.424 E178.03632
G1 X82.879 Y71.424 E178.11746
G1 X53.074 Y41.618 E180.80396
G1 X53.074 Y42.212 E180.84182
G1 X53.056 Y42.653 E180.86995
G1 X53.028 Y42.845 E180.88232
G1 X81.606 Y71.424 E183.45823
G1 X80.333 Y71.424 E183.53936
G1 X52.798 Y43.888 E186.02126
G1 X52.776 Y43.97 E186.02667
G1 X52.513 Y44.593 E186.06977
G1 X52.408 Y44.771 E186.08294
G1 X79.06 Y71.424 E188.48525
G1 X77.788 Y71.424 E188.56633
G1 X51.899 Y45.535 E190.89982
G1 X51.763 Y45.715 E190.9142
G1 X51.625 Y45.855 E190.92673
G1 X51.637 Y45.867 E190.92781
G1 X51.288 Y46.197 E190.95842
G1 X76.515 Y71.424 E193.23224
G1 X75.242 Y71.424 E193.31338
G1 X50.701 Y46.883 E195.52537
G1 X50.635 Y46.973 E195.53248
G1 X50.49 Y47.2 E195.54965
G1 X50.35 Y47.452 E195.56802
G1 X50.236 Y47.69 E195.58484
G1 X73.969 Y71.424 E197.72405
G1 X72.696 Y71.424 E197.80518
G1 X49.928 Y48.655 E199.85741
G1 X49.877 Y48.919 E199.87455
G1 X49.798 Y49.266 E199.89723
G1 X49.776 Y49.343 E199.90234
G1 X49.669 Y49.669 E199.9242
G1 X71.424 Y71.424 E201.88508
G1 X70.151 Y71.424 E201.96621
G1 X49.397 Y50.67 E203.83687
G1 X49.393 Y50.693 E203.83835
G1 X49.358 Y50.981 E203.85685
G1 X49.333 Y51.364 E203.88131
G1 X49.329 Y51.49 E203.88934
G1 X49.329 Y51.875 E203.91388
G1 X68.878 Y71.424 E205.67592
G1 X67.605 Y71.424 E205.75705
G1 X49.329 Y53.148 E207.40435
G1 X49.329 Y54.056 E207.46222
G1 X49.339 Y54.261 E207.4753
G1 X49.355 Y54.446 E207.48714
G1 X66.332 Y71.424 E209.0174
G1 X65.06 Y71.424 E209.09847
G1 X49.726 Y56.09 E210.48059
G1 X49.778 Y56.244 E210.49095
G1 X49.981 Y57.175 E210.55168
G1 X50.065 Y57.463 E210.5708
G1 X50.158 Y57.723 E210.5884
G1 X50.213 Y57.85 E210.59722
G1 X63.787 Y71.424 E211.82071
G1 X62.514 Y71.424 E211.90184
G1 X52.79 Y61.7 E212.77831
G1 X52.905 Y62.05 E212.80179
G1 X53.033 Y62.714 E212.84489
G1 X53.066 Y63.249 E212.87905
G1 X61.241 Y71.424 E213.6159
G1 X59.969 Y71.424 E213.69697
G1 X53.075 Y64.53 E214.31836
G1 X53.075 Y65.803 E214.3995
G1 X58.696 Y71.424 E214.90614
G1 X57.901 Y71.424 E214.95681
G1 X57.776 Y71.42 E214.96478
G1 X57.395 Y71.396 E214.98911
G1 X53.108 Y67.109 E215.37552
G1 X53.117 Y67.224 E215.38287
G1 X53.165 Y67.539 E215.40318
G1 X53.226 Y67.819 E215.42144
G1 X53.303 Y68.088 E215.43928
G1 X53.401 Y68.362 E215.45782
G1 X53.523 Y68.645 E215.47747
G1 X53.644 Y68.885 E215.4946
G1 X53.691 Y68.964 E215.50046
G1 X55.534 Y70.807 E215.66657
G1 X55.452 Y70.762 E215.67253
G1 X55.225 Y70.619 E215.68963
G1 X54.954 Y70.417 E215.71118
G1 X54.602 Y70.114 E215.74078
G1 X54.484 Y70.007 E215.75093
G1 X54.389 Y69.904 E215.75986
G1 X54.141 Y69.623 E215.78375
G1 X53.971 Y69.403 E215.80147
G1 X53.805 Y69.158 E215.82033
G0 F7200 X56.138 Y34.501
G1 F1125 X93.061 Y71.424 E219.14837
G1 X94.334 Y71.424 E219.2295
G1 X57.147 Y34.237 E222.58133
G1 X57.274 Y34.218 E222.58952
G1 X57.747 Y34.182 E222.61975
G1 X57.942 Y34.175 E222.63219
G1 X58.358 Y34.175 E222.6587
G1 X95.607 Y71.424 E226.01612
G1 X96.879 Y71.424 E226.09719
G1 X59.631 Y34.175 E229.45457
G1 X60.903 Y34.175 E229.53564
G1 X98.152 Y71.424 E232.89306
G1 X99.425 Y71.424 E232.97419
G1 X62.176 Y34.175 E236.33162
G1 X63.449 Y34.175 E236.41275
G1 X100.698 Y71.424 E239.77017
G1 X101.971 Y71.424 E239.8513
G1 X64.722 Y34.175 E243.20873
G1 X65.994 Y34.175 E243.2898
G1 X103.243 Y71.424 E246.64722
G1 X104.516 Y71.424 E246.72835
G1 X67.267 Y34.175 E250.08577
G1 X68.54 Y34.175 E250.16691
G1 X105.664 Y71.298 E253.51302
G1 X105.783 Y71.273 E253.52077
G1 X106.051 Y71.197 E253.53852
G1 X106.326 Y71.098 E253.55715
G1 X106.611 Y70.975 E253.57693
G1 X106.612 Y70.974
G1 X69.813 Y34.175 E256.89379
G1 X71.086 Y34.175 E256.97493
G1 X107.408 Y70.497 E260.24879
G1 X107.587 Y70.357 E260.26328
G1 X107.867 Y70.111 E260.28703
G1 X107.973 Y70.012 E260.29628
G1 X108.078 Y69.897 E260.3062
G1 X108.079 Y69.896
G1 X72.358 Y34.175 E263.5259
G1 X73.631 Y34.175 E263.60703
G1 X108.64 Y69.184 E266.76255
G1 X108.726 Y69.047 E266.77286
G1 X108.865 Y68.796 E266.79115
G1 X108.999 Y68.515 E266.81099
G1 X109.069 Y68.34 E266.823
G1 X74.904 Y34.175 E269.90245
G1 X76.177 Y34.175 E269.98358
G1 X109.332 Y67.33 E272.97199
G1 X109.36 Y67.106 E272.98638
G1 X109.383 Y66.724 E273.01077
G1 X109.388 Y66.598 E273.01881
G1 X109.388 Y66.113 E273.04972
G1 X77.45 Y34.175 E275.92843
G1 X78.722 Y34.175 E276.0095
G1 X109.388 Y64.84 E278.77353
G1 X109.388 Y63.567 E278.85466
G1 X79.995 Y34.175 E281.50394
G1 X81.268 Y34.175 E281.58507
G1 X109.473 Y62.38 E284.12732
G1 X109.474 Y62.366 E284.12821
G1 X109.638 Y61.706 E284.17156
G1 X109.759 Y61.393 E284.19294
G1 X82.541 Y34.175 E286.64623
G1 X83.814 Y34.175 E286.72736
G1 X110.176 Y60.537 E289.10349
G1 X110.206 Y60.48 E289.10759
G1 X110.601 Y59.931 E289.1507
G1 X110.718 Y59.807 E289.16156
G1 X85.086 Y34.175 E291.47189
G1 X86.359 Y34.175 E291.55303
G1 X111.334 Y59.15 E293.80413
G1 X111.551 Y58.895 E293.82548
G1 X111.75 Y58.628 E293.8467
G1 X111.881 Y58.424 E293.86215
G1 X87.632 Y34.175 E296.04782
G1 X88.905 Y34.175 E296.12896
G1 X112.29 Y57.56 E298.23675
G1 X112.372 Y57.308 E298.25364
G1 X112.441 Y57.035 E298.27159
G1 X112.509 Y56.68 E298.29463
G1 X112.542 Y56.539 E298.30386
G1 X90.178 Y34.175 E300.31963
G1 X91.45 Y34.175 E300.4007
G1 X112.839 Y55.563 E302.32854
G1 X112.861 Y55.495 E302.33309
G1 X112.939 Y55.198 E302.35266
G1 X112.994 Y54.906 E302.3716
G1 X113.031 Y54.618 E302.39011
G1 X113.039 Y54.491 E302.39822
G1 X92.723 Y34.175 E304.22939
G1 X93.996 Y34.175 E304.31053
G1 X113.059 Y53.238 E306.02876
G1 X113.059 Y51.965 E306.1099
G1 X95.269 Y34.175 E307.71339
G1 X96.541 Y34.175 E307.79446
G1 X112.972 Y50.605 E309.27541
G1 X112.938 Y50.406 E309.28828
G1 X112.88 Y50.168 E309.30389
G1 X112.785 Y49.867 E309.32401
G1 X112.769 Y49.825 E309.32688
G1 X112.61 Y49.355 E309.3585
G1 X112.503 Y48.863 E309.39059
G1 X97.814 Y34.175 E310.71453
G1 X99.087 Y34.175 E310.79566
G1 X110.774 Y45.862 E311.84907
G1 X110.421 Y45.44 E311.88413
G1 X110.058 Y44.871 E311.92715
G1 X109.768 Y44.259 E311.97031
G1 X109.557 Y43.617 E312.01338
G1 X109.5 Y43.315 E312.03297
G1 X100.36 Y34.175 E312.8568
G1 X101.633 Y34.175 E312.93793
G1 X109.388 Y41.93 E313.63693
G1 X109.388 Y40.657 E313.71806
G1 X102.905 Y34.175 E314.30236
G1 X104.178 Y34.175 E314.38349
G1 X109.388 Y39.384 E314.85305
G1 X109.388 Y39.03 E314.87561
G1 X109.38 Y38.844 E314.88748
G1 X109.345 Y38.374 E314.91751
G1 X109.296 Y38.05 E314.9384
G1 X109.288 Y38.011 E314.94094
G1 X105.552 Y34.276 E315.27763
G1 X105.65 Y34.294 E315.28399
G1 X105.947 Y34.372 E315.30356
G1 X106.232 Y34.466 E315.32268
G1 X106.479 Y34.564 E315.33962
G1 X106.76 Y34.697 E315.35943
G1 X107.011 Y34.837 E315.37775
G1 X107.237 Y34.979 E315.39476
G1 X107.509 Y35.182 E315.41639
G1 X107.861 Y35.484 E315.44595
G1 X107.978 Y35.592 E315.4561
G1 X108.067 Y35.686 E315.46435
G1 X108.321 Y35.976 E315.48892
G1 X108.492 Y36.196 E315.50668
G1 X108.666 Y36.454 E315.52652
G1 X108.813 Y36.703 E315.54495
G1 X108.944 Y36.961 E315.56339
G1 X109.05 Y37.21 E315.58063
G1 X109.162 Y37.519 E315.60158
G1 X109.235 Y37.777 E315.61867
G0 F90 X109.235 Y37.777 Z0.656
G0 F7200 X106.277 Y34.295
;TIME_ELAPSED:247.339949
;LAYER:-4
;TYPE:SUPPORT-INTERFACE
G1 F1500 X105.997 Y34.203 E315.62429
G1 X105.699 Y34.125 E315.63016
G1 X105.401 Y34.068 E315.63595
G1 X105.086 Y34.029 E315.642
G1 X104.688 Y34.003 E315.6496
G1 X104.567 Y33.999 E315.65191
G1 X57.937 Y34 E316.54078
G1 X57.738 Y34.007 E316.54457
G1 X57.264 Y34.043 E316.55363
G1 X56.928 Y34.093 E316.56011
G1 X56.641 Y34.156 E316.56571
G1 X56.361 Y34.236 E316.57126
G1 X56.184 Y34.3 E316.57485
G1 X106.29 Y34.3 E317.52998
G1 X106.556 Y34.406 E317.53544
G1 X106.843 Y34.542 E317.54149
G1 X107.039 Y34.65 E317.54576
G1 X55.431 Y34.65 E318.52952
G1 X55.247 Y34.758 E318.53359
G1 X54.991 Y34.931 E318.53948
G1 X54.903 Y35 E318.54161
G1 X107.56 Y35 E319.54537
G1 X107.616 Y35.042 E319.5467
G1 X107.971 Y35.347 E319.55563
G1 X107.975 Y35.35 E319.55572
G1 X54.489 Y35.35 E320.57528
G1 X54.471 Y35.365 E320.57573
G1 X54.379 Y35.451 E320.57813
